X:1
T:O Where Can Truth Be Found Today?
T:O Where Can Truth Be Found Today?
T:Thomas Haweis, 1792
T:Richard W. Adams, 2019
T:© 2019 Richard W. Adams. Reproduce or publish freely for Christian worship or devotions. Courtesy of the Cyber Hymnal™
C:Thomas Haweis, 1792
Z:© 2019 Richard W. Adams. Reproduce or publish freely for Christian worship or devotions.
Z:Courtesy of the Cyber Hymnal™
%%score ( 1 2 ) ( 3 4 )
L:1/8
M:3/4
K:F
V:1 treble 
V:2 treble 
V:3 bass 
V:4 bass 
V:1
 [A,C]2 [CF]2 [FA]2 | c4 [DB]2 | ([CA]2 [DB]2) G2 | [A,F]4 [CA]2 | (G2 c2) [DF]2 | %5
w: 1.~O where can|truth be|found * to-|day? And|where * does|
w: 2.~From iv- ory|towers, phi-|loso- * phies|fair, From|ora- * cles|
w: 3.~They tra- vel|to and|fro, * and|run To|far * off|
w: 4.~“I am the|way, the|truth,~and * the|life.” Re-|spond * to|
w: 5.~Let Je- sus|have your|heart * to-|day, He|peace * and|
 (E2 F2) [=B,D]2 | C4 [CG]2 | [CA]2 [DG]2 [CF]2 | [GB]2 [FA]2 [EG]2 | (c2 z) [FA]2 x2 | %10
w: wis- * dom|hide? Oh,|who to life’s|mys- ter- ies|ho- lds|
w: of * a|day, In|halls of the|learn- èd, in|pal- ac-|
w: lands * and|lore; With|un- hear- ing|ea- rs, they|do not|
w: Je- * sus’|call, And|o- pen the|do- or to|tru- th|
w: love~will * be-|stow; On|Chr- ist the|Ro- ck of|tru- th|
 [Fd]4 [Fc]2 | D2 [EB]2 A2 | [DA][DG] [CF]2 [CE]2 | [CF]6 |] %14
w: the key?|Oh, where does|the know- ing heart|a-|
w: es strong,|Do ques- tion-|ers seek to learn|the|
w: per- ceive|That tru- th|is knock- ing at|the|
w: and light:|In Him is|no da- rk- ness|at|
w: now stand,|From whe- nce|do wis- dom’s wa-|ters|
V:2
 x6 | (G2 E2) x2 | x4 (CB,) | x6 | C4 x2 | C4 x2 | C4 x2 | x6 | x6 | F3 B3 F | x6 | D2 (FE) x2 | %12
 x6 | x6 |] %14
V:3
 F,2 [F,A,]2 [F,C]2 | C4 ([D,F,][E,G,]) | ([F,A,]2 [B,,F,]2) [C,E,]2 | F,4 F,2 | [E,G,]4 [F,A,]2 | %5
 G,4 (G,F,) | [C,E,]4 [E,C]2 | [F,C]2 B,2 [A,C]2 | [G,D]2 C2 [B,C]2 | C4 [F,C]2 x | B,4 [A,,C]2 | %11
 [B,,F,]2 [G,,G,]2 [A,,F,]2 | F,G, [C,A,]2 [C,G,]2 | [F,A,]6 |] %14
V:4
 F,2 x4 | (E,2 C,2) x2 | x6 | F,4 F,2 | x6 | G,4 G,,2 | x6 | x6 | x2 C2 x2 | (A,2 G,2) x3 | %10
 B,4 x2 | x6 | B,,2 x4 | x6 |] %14

